X:855
T:The Thrush's Nest
N:"Collected by McFadden"
B:O'Neill's 855
Z:Transcribed by Dan G. Petersen, dangp@post6.tele.dk
M:6/8
L:1/8
K:D
Add fdd|edd fdd|Add fdd|edB BAF|
Add fdd|edd efg|f/g/a.f agfe|fdB Bcd:|
ABA/F/ DFA|DFA Bcd|ABA/F/ DFA|fdB Bcd|
ABA/F/ DFA|DFA d2d/e/|f/g/a.f agfe|fdB Bcd:|
